packages/sources/assets/src/assets/flag-by.svg

<svg width="28" height="20" viewBox="0 0 28 20" fill="none" xmlns="http://www.w3.org/2000/svg">
<rect width="28" height="20" rx="2" fill="white"/>
<mask id="mask0_503_4449" style="mask-type:alpha" maskUnits="userSpaceOnUse" x="0" y="0" width="28" height="20">
<rect width="28" height="20" rx="2" fill="white"/>
</mask>
<g mask="url(#mask0_503_4449)">
<path fill-rule="evenodd" clip-rule="evenodd" d="M0 13.3333H28V0H0V13.3333Z" fill="#E54252"/>
<path fill-rule="evenodd" clip-rule="evenodd" d="M0 20H28V13.3333H0V20Z" fill="#5CBE6B"/>
<path fill-rule="evenodd" clip-rule="evenodd" d="M0 0H4V3.00024L3.3335 4L4 4.99976V7.00024L3.3335 8L4 8.99976V11.0002L3.3335 12L4 12.9998V15.0002L3.3335 16L4 16.9998V20H0V0Z" fill="white"/>
<path fill-rule="evenodd" clip-rule="evenodd" d="M-0.666667 2L-2 4L-0.666667 6L-2 8L-0.666667 10L-2 12L-0.666667 14L-2 16L-0.666667 18L0.666667 16L-0.666667 14L0.666667 12L-0.666667 10L0.666667 8L-0.666667 6L0.666667 4L-0.666667 2Z" fill="#E54252"/>
<path fill-rule="evenodd" clip-rule="evenodd" d="M0.666504 2L1.99984 0L3.33317 2L1.99984 4L0.666504 2ZM1.99984 8L0.666504 6L1.99984 4L3.33317 6L1.99984 8ZM1.99984 12L0.666504 10L1.99984 8L3.33317 10L1.99984 12ZM1.99984 16L3.33317 14L1.99984 12L0.666504 14L1.99984 16ZM1.99984 16L3.33317 18L1.99984 20L0.666504 18L1.99984 16Z" fill="#E54252"/>
</g>
</svg>

<svg width="28" height="20" fill="none" xmlns="http://www.w3.org/2000/svg"><rect width="28" height="20" rx="2" fill="#fff"/><mask id="a" style="mask-type:alpha" maskUnits="userSpaceOnUse" x="0" y="0" width="28" height="20"><rect width="28" height="20" rx="2" fill="#fff"/></mask><g mask="url(#a)" fill-rule="evenodd" clip-rule="evenodd"><path d="M0 13.333h28V0H0v13.333Z" fill="#E54252"/><path d="M0 20h28v-6.667H0V20Z" fill="#5CBE6B"/><path d="M0 0h4v3l-.667 1L4 5v2l-.667 1L4 9v2l-.667 1L4 13v2l-.667 1L4 17v3H0V0Z" fill="#fff"/><path d="M-.667 2-2 4l1.333 2L-2 8l1.333 2L-2 12l1.333 2L-2 16l1.333 2 1.334-2-1.334-2 1.334-2-1.334-2L.667 8-.667 6 .667 4-.667 2ZM.667 2 2 0l1.333 2L2 4 .667 2ZM2 8 .667 6 2 4l1.333 2L2 8Zm0 4L.667 10 2 8l1.333 2L2 12Zm0 4 1.333-2L2 12 .667 14 2 16Zm0 0 1.333 2L2 20 .667 18 2 16Z" fill="#E54252"/></g></svg>
